X:1
T:Reminiscent
T:Reminiscent
T:Yiruma
C:Yiruma
%%score 1 { ( 2 4 ) | ( 3 5 ) }
L:1/8
Q:1/4=90
M:6/8
K:C
V:1 bass nm="Violoncello" snm="Vc."
V:2 treble nm="Flügel" snm="Klav."
V:4 treble 
V:3 treble 
V:5 treble 
V:1
 z2 | z6 | z6 | z6 | z6 | z6 | z6 | z6 | z6 | z6 | z6 | z6 | z6 | z6 | z6 | z6 | z6 | z6 | z6 | %19
 z6 | z6 | z6 | z6 | z6 | z6 | z6 | z6 | z6 | z6 | z6 | z6 | z6 ||[M:4/4][Q:1/4=60] z8 | %33
 G,4 B,2 C2 | G,4 D,2 E,2 | F,2 G,2 A,2 B,2 | B,4 A,2 G,2 | G,4 B,2 C2 | D4 E2 G2 | G2 F2 E2 D2 | %40
 D4 !fermata!B,2[Q:1/4=90] z2 |[M:6/8] z6 | z6 | z6 | z6 | z6 | z6 | z6 | z6 | z6 | z6 | z6 | z6 | %53
 z6 | z6 | z6 | z6 | z6 | z6 | %59
[M:4/4][Q:1/4=80] z8[Q:1/4=75][Q:1/4=70][Q:1/4=65][Q:1/4=60][Q:1/4=55][Q:1/4=50][Q:1/4=45] | %60
[Q:1/4=40] z8[Q:1/4=35][Q:1/4=30] | z8 |] %62
V:2
 c'/b/c'/d'/ | e'3/2c'd/ d'3/2bd/ | c'3/2c3/2 ec'/b/c'/d'/ | e'3/2c'd/ d'3/2bd/ | %4
 c'3/2c3/2 ec'/b/c'/d'/ | e'3/2c'd/ d'3/2ba/ |!8va(! a'3/2[bg']3/2 [ge']c'/b/c'/d'/ | %7
 [ge']3/2c'd/ [ad']3/2[db]d/!8va)! | [gc']3/2c3/2 gc/B/c/d/ | [Ge]3/2[Gc]D/ [Ad]3/2[DB]G/ | %10
 [Gc]3/2C3/2 Gc/B/c/d/ | [Gce]3/2[Gc]D/ [Ad]3/2[DB]D/ | [Gc]3/2C3/2 Gc/B/[Gc]/d/ | %13
 [Ge]3/2[Gc]D/ [Ad]3/2[DB]G/ | [da]3/2[Bg]3/2 [Ge]c/B/c/d/ | [Ge]3/2[Gc]D/ [Ad]3/2[DB]G/ | %16
 [CGc]3/2C3/2 Gc/B/c/d/ | [Fce]3/2[Fc]F/ [FBd]B/A/B/c/ | [EB]3/2[B,G]B,/ Ec/B/c/d/ | %19
 [Fce]3/2[Fc]3/2 dB/A/B/c/ | [ea]3/2[Bg]3/2 [Ge]c/B/c/d/ | [Fce]3/2[Fc]F/ [FBd]B/A/B/c/ | %22
 [DGB]3/2G3/2 [CGc][Cc]/B/c/d/ | [Fce]3/2[Fc]3/2 [FA]A/B/c | [DAd]>A,B,/E/- [^G,E]c/B/c/d/ | %25
 [EAe]3/2[Ec]D/ [Ad]3/2[DB]G/ | [Gc]3/2C3/2 Gc/B/c/d/ | [EAe]3/2[Ec]D/ [Ad]3/2[DB]G/ | %28
 [Gc]3/2C3/2 Gc/B/c/d/ | [Ge]3/2cD/ [Ad]B/A/B/c/ | [Ada]3/2[Gg]G/ c[Gc]/B/c/d/ | %31
 [Gce]3/2cD/ [Ad]3/2[DB]D/ ||[M:4/4]!mp! c8 | !/![DEG]8 | !/![DA]4 !/![DB]2 !/![Dc]2 | !/![CFG]8 | %36
 !/![EB]4 !/![EA]2 !/![EB]2 | !/![DEG]8 | !/![DA]4 !/![DB]2 !/![Dc]2 | !/![CFG]8 | %40
 !/![DA]4 !fermata![DA]2!f! c'/b/c'/d'/ |[M:6/8] e'3/2c'd/ [ad']3/2[db]d/ | %42
 c'3/2c3/2 ec'/b/c'/d'/ | [ae']3/2c'd/ [ad']3/2[db]c/ | c'3/2c3/2 ec'/b/c'/d'/ | %45
 [ge']3/2[gc']d/ [ad']3/2[eb]c/ | [cgc']3/2[cb]3/2 [cg][gc']/b/c'/d'/ | %47
 [ge']3/2[gc']d/ [ad']3/2[db]c/ | [gc']3/2c3/2 gc'/b/c'/d'/ |{/d'} e'/g'/[gg']g/c'/ d'3/2[db]d/ | %50
 [gc']3/2c3/2 gc'/b/c'/d'/ |{/d'} e'/g'/[gg']g/c'/ [ad']3/2[db]d/ | [gc']3/2c3/2 gc'/b/c'/d'/ | %53
{/d'} e'/g'/[gg']g/c'/ d'3/2[db]d/ | [gc']3/2[cb]3/2 [cg][Gc]/B/c/d/ | %55
 [Gce]3/2[Gc]3/2 [CG][Gc]/B/c/d/ | [Gce]3/2[Gc]3/2 G[Gc]/B/c/d/ | [Gce]3/2c3/2 [CG][Gc]/B/c/d/ | %58
 [Gce]3/2cD/ [Ad]3/2[DB]D/ |[M:4/4]"^dim." [Dc]8- | [Dc]2 CB, CG!fermata!C!fermata!B, | %61
 !fermata![G,C]8 |] %62
V:3
!f! z2 | F,/C/ G2 G,/D/ B2 | A,/E/BE/ B7/2 | F,/C/ G2 G,/D/ B2 | A,/E/BE/ B7/2 | %5
 F,/C/ G2 G,/D/ A2 | A,/E/Bc/ e7/2 | F,/C/GA G,/D/AG, | A,/E/BE/ G7/2 | %9
[K:bass] F,,/C,/G,A, G,,/D,/A,G,, | A,,/E,/B,E,/G,E,/CA,,/F,/ | F,,/C,/G,A, G,,/D,/A,B, | %12
 A,,/E,/B,E,/B,E,/C/E,/G,,/E,/ | F,,/C,/G,A, G,,/D,/A,G,,/G,/ | A,,/E,/B,C/EG,>A,,F,/ | %15
 F,,/C,/G,F,, G,,/D,/A,G,,/G,/ | A,,/E,/B,E,/ G,2 G,/A,,/D,/ | [D,,D,]/A,,/F,A, G,,/D,/B,D,/C,/ | %18
 C,,/G,,/E,G,3/2G,B,/C,/D,/ | D,,/A,,/F,A,/F,/ G,,/D,/A,G,, | C,,/G,,/E,G,/B,G,B,/C,/D,/ | %21
 D,,/A,,/F,A,/F,/ G,,/D,/B,G,, | E,,/G,,/G,B,/G,/ A,,/E,/G,A,,/D,/ | D,,/A,,/F,A,/C/- C2 D,/E,/ | %24
 E,,/B,,/E,B,, E,,3 | F,,/C,/A,C G,,/D,/A,G,, | A,,/E,/B,E,/B,E,G,/A,,/F,/ | %27
 F,,/C,/A,F,, G,,/D,/A,G,, | A,,/E,/B,E,/B,E,G,/A,,/F,/ | F,,/C,/A,F,, G,,/D,/A,G,, | %30
 E,,/B,,/G,B, A,,/E,C/A,,/F,/ | F,,/C,/A,F,, G,,/D,/A,G,, ||[M:4/4] A,,8 | !/![F,A,]8 | %34
 !/![E,G,A,]4 !/![E,G,B,]2 !/![E,G,C]2 | !/![D,F,]8 | !/![C,G,]8 | !/![F,A,]8 | %38
 !/![E,G,A,]4 !/![E,G,B,]2 !/![E,G,C]2 | !/![D,F,]8 | !/![E,A,]4 !fermata![E,A,]2 z2 | %41
[M:6/8][K:treble] F,/C/ G2 G,/D/ A2 | A,/E/BE/ A7/2 | F,/C/GF, G,/D/AB | A,/E/BE/GE/GA, | %45
[K:bass] F,,/C,/G,A, G,,/D,/A,B, | A,,/E,/B,C<EA,A,,/F,/ | F,,/C,/G,F,, G,,/D,/A,B, | %48
 A,,/E,/B,C<EG,G,, | [G,,G,]G,<A, G,,/D,/A,B, | A,,/E,/B,C/EE,3/2A,, | F,,C,<A, G,,/D,/A,B, | %52
 A,,/E,/B,C/EE,A,/A,, | F,,C,<A, G,,/D,/A,B, | A,,/E,/B,C<EA,A,, | F,,/C,/A,F,/C,A,F,/F,,/G,/ | %56
 G,,/D,/B,G,/D,B,/G,/G,/G,,/G,/ | A,,/E,/CG,/E,CE,/A,, | [F,,G,]C,G, [G,,A,]/D,/A,G,,/A,,/ | %59
[M:4/4] z G,G,G, G,G,G,G,- | G,4 [F,,C,F,]2 !fermata![G,,D,G,]2 | !fermata![A,,E,]8 |] %62
V:4
 x2 | x6 | x6 | x6 | x6 | x6 |!8va(! x6 | x6!8va)! | x6 | x6 | x6 | x6 | x6 | x6 | x6 | x6 | x6 | %17
 x6 | x6 | x6 | x6 | x6 | x6 | x6 | x6 | x6 | x6 | x6 | x6 | x6 | x6 | x6 ||[M:4/4] !/![DG]8 | x8 | %34
 x8 | x8 | x8 | x8 | x8 | x8 | x8 |[M:6/8] x6 | x6 | x6 | x6 | x6 | x6 | x6 | x6 | x6 | x6 | x6 | %52
 x6 | x6 | x6 | x6 | x6 | x6 | x6 |[M:4/4] G[CG][CG][CG] [CG][CG][CG][CG]- | [CG]2 x6 | x8 |] %62
V:5
 x2 | x6 | x6 | x6 | x6 | x6 | x6 | x6 | x6 |[K:bass] x6 | x6 | x6 | x6 | x6 | x6 | x6 | x6 | x6 | %18
 x6 | x6 | x6 | x6 | x6 | x6 | x6 | x6 | x6 | x6 | x6 | x6 | x6 | x6 ||[M:4/4] !/!G,8 | x8 | x8 | %35
 x8 | x8 | x8 | x8 | x8 | x8 |[M:6/8][K:treble] x6 | x6 | x6 | x6 |[K:bass] x6 | x6 | x6 | x6 | %49
 x6 | x6 | x6 | x6 | x6 | x6 | x6 | x6 | x6 | x6 |[M:4/4] [A,,,A,,]8 | x8 | x8 |] %62

